svg/material-icons/bathroom/materialiconsoutlined/24px.svg

<svg xmlns="http://www.w3.org/2000/svg" width="24" height="24" viewBox="0 0 24 24"><path d="M8 14c0-.55.45-1 1-1s1 .45 1 1-.45 1-1 1-1-.45-1-1zm4 1c.55 0 1-.45 1-1s-.45-1-1-1-1 .45-1 1 .45 1 1 1zm3 0c.55 0 1-.45 1-1s-.45-1-1-1-1 .45-1 1 .45 1 1 1zm-3-7.5c-1.76 0-3.22 1.31-3.46 3h6.93a3.52 3.52 0 0 0-3.47-3M12 6c2.76 0 5 2.24 5 5v1H7v-1c0-2.76 2.24-5 5-5zM9 18c.55 0 1-.45 1-1s-.45-1-1-1-1 .45-1 1 .45 1 1 1zm3 0c.55 0 1-.45 1-1s-.45-1-1-1-1 .45-1 1 .45 1 1 1zm3 0c.55 0 1-.45 1-1s-.45-1-1-1-1 .45-1 1 .45 1 1 1zm5-14H4v16h16V4m0-2c1.1 0 2 .9 2 2v16c0 1.1-.9 2-2 2H4c-1.1 0-2-.9-2-2V4c0-1.1.9-2 2-2h16z"/></svg>

<svg xmlns="http://www.w3.org/2000/svg" enable-background="new 0 0 24 24" height="24" viewBox="0 0 24 24" width="24"><g><path d="M0,0h24v24H0V0z" fill="none"/></g><g><path d="M8,14c0-0.55,0.45-1,1-1s1,0.45,1,1s-0.45,1-1,1S8,14.55,8,14z M12,15c0.55,0,1-0.45,1-1s-0.45-1-1-1s-1,0.45-1,1 S11.45,15,12,15z M15,15c0.55,0,1-0.45,1-1s-0.45-1-1-1s-1,0.45-1,1S14.45,15,15,15z M12,7.5c-1.76,0-3.22,1.31-3.46,3h6.93 C15.22,8.81,13.76,7.5,12,7.5 M12,6c2.76,0,5,2.24,5,5v1H7v-1C7,8.24,9.24,6,12,6z M9,18c0.55,0,1-0.45,1-1s-0.45-1-1-1 s-1,0.45-1,1S8.45,18,9,18z M12,18c0.55,0,1-0.45,1-1s-0.45-1-1-1s-1,0.45-1,1S11.45,18,12,18z M15,18c0.55,0,1-0.45,1-1 s-0.45-1-1-1s-1,0.45-1,1S14.45,18,15,18z M20,4H4v16h16V4 M20,2c1.1,0,2,0.9,2,2v16c0,1.1-0.9,2-2,2H4c-1.1,0-2-0.9-2-2V4 c0-1.1,0.9-2,2-2H20z"/></g></svg>
